!!!OTL: Geming chenglegong
!!!ARE: Asia, China,ÿGansu Ningxian
!! I, 126
!!!SCT: C1821
!!!YEM: Copyright 1995, estate of Helmut Schaffrath.
**kern
*ICvox
*Ivox
*M2/4
*k[b-]
*F:
{8cc
8cc
8ff
16dd
16cc
=1
16g
16b-
16a
16g
4f
=2
8cc
8cc
8ff
16dd
16cc
=3
16g
16b-
16a
16g
4f}
=4
{8ff
8cc
8ff
16cc
16cc
=5
8cc
16dd
16cc
4b-
=6
8d
8f
8g
16a
16g
=7
2f}
=8
{16d
16f
16d
16f
4g
=9
8.d
16f
8g
16a
16g
=10
2f}
==
!!!AGN: Xiaodiao
!! Han
!!!ONB: ESAC (Essen Associative Code) Database: SENGANSU
!!!AMT: simple duple
!!!AIN: vox
!!!EED: Helmut Schaffrath
!!!EEV: 1.0
*-
